X:4
T:Midnight Frisbee
C:T. S. Macdonald
M:C|
L:1/8
K:Bb
F<Bd>B c>A F2 | d>gf<B c>BA<F | F<Bd>B c<A f2 | e<cf>A F<B B2 :|
d<ff>a b>gf<B | g>f (e/d/)c/B/ A<cc2 | d<ff>a b>gf<b | (a/g/)f/e/ d>A F<B B2 |
d<ff>a b>gf<B | g>f (e/d/)c/B/ A<F F2 | F>Bd>B (c/{d}B/)c/e/ f2 | e<cf>A F<B B2 |]


